X:50
T:Clancy's
T:Katy's Rambles
R:jig
D:Sean Ryan: Take the Air
Z:id:hn-jig-50
M:6/8
K:Edor
G2e dBd|gab afd|ege dBG|AGA BGE|G2e dBd|gab afd|ege dBA|1 Bed edB:|2 Bed e2f||
|:gbe gbe|gbb bag|fad fad|faa agf|eBe g2a|bag fef|gfe dBA|1 Bed e2f:|2 Bed edB||
<end>
<start>
